!!!SOCIAL_FUNCTION:	songs of war
!!!PDT:	1918

Specific Region: Dakotas, Minnesota, Montana, Nebraska
!!!REG: Dakotas and Montana
!!!LING_GROUP: Siouan
!!!LANG: Tone
!!!OTL@ENG: When You Return
!!!ONM: No. 151b
**kern
*Imale
*clefF4
*k[b-e-]
*M3/4
*MM100
8f
8d
16d
8.d
(16d
16c)
8B-
=2
8f
8d
16d
8.f
8f
8d
=3
8f
8d
16d
8.d
(16d
16c)
8B-
=4
8c
8c
16c
8.d
(16d
16c)
8c
=5||
*M2/4
4c
(16d
16c)
8c
=6
8.B-
16B-
(16B-
8.F)
=7
16B-
8B-
16c
4B-
=8
4B-
16c
16B-
8B-
=9||
*M3/4
8F
8F
4.F
8F
=10
2.F
==
*-
!!!CNT: Native American -- Sioux
!!!MRD: 1911/07//-1914///
!!!OCL: Frances Densmore
!!!YOR1: Teton Sioux Music, Bulletin 61,
!!!YOR2: Bureau of American Ethnology, Smithsonian Institution
!!!PPR: Government Printing Office
!!!PPP: Washington, D.C.
!!!PDT: 1918///
!!!ENC: Craig Stuart Sapp
!!!END: 2002/03/25/
!!!EEV: 2002/03/31/
!!!AGN: War Song/Song of a Typical War Expedition
!!!MPN@@SIO: Waha'chungka-nong'pa
!!!MPN@ENG: Two Shields
!!!TXO: Teton Sioux
!!!MLC: Standing Rock Reservation, South Dakota, United States of America
!!!ARL: 45.9/-100.7#
!!!catalog: Catalogue No. 531
!!!PPG: 371
!!!EFL: 155/245
!!!VTS: 2227360591
